X: 1173
T: Johnny O'Shea.
B:O'Neill's Music of Ireland
N:O'Neill's - 1173
Z:Transcribed by Stephen Foy (shf@access.digex.net)
Z:abc 1.6
M:9/8
R:slipjig
K:Em
d|efe edB BAG|efe edB efg|(e/f/g).e edB BAG|dBA AB^d e2:|
|:e|gag gdB BAG|gbg gdB gab|bag agf edB|dBA AB^d e2:|


